X:1
T:Title
%%score 1 2 3
L:1/8
M:2/2
K:C
V:1 treble nm="Part_1"
V:2 treble-8 nm="Part_2"
V:3 bass nm="Part_3"
V:1
 C8- | C8 | D8 | F8 | G8 | G4 A4- | A2 G2 G4- | G4 ^F4 | G8 | z8 | F8 | G8 | E8- | E4 (3:2:1F6- | %14
 (3:2:2F2 D4 D4- | D4 ^C4 | D8- | D8 | z8 | z8 | F8 | G4 A4- | A2 G2 G4- | G4 ^F4 | G8- | G8 | z8 | %27
 z8 | C8- | C4 D4- | D4 E4 | F8 | E8 | F6 E2 | D2 C2 C4- | C4 B,4 | C8 | z8 | F8- | F8 | E8 | D8 | %42
 E8 | F8 | E4 D4- | D4 ^C4 | D8 || D8- | D8 | G8 | G8 | z4 A4- | A4 G4- | G4 F4 | G8 | G8 | F8- | %57
 F4 D4 | E8 | D8 | z4 D4- | D4 D4- | D2 E2 F4- | F2 D2 D4- | D4 ^C4 | D8 | D8 | z4 D4- | D2 E2 F4 | %69
 G4 A4- | A4 F4 | D8 | G8 | F4 E4- | E4 C4 | D8 | E4 F4- | F2 D2 F4- | F2 E2 D2 C2 | D4 C4- | %80
 C2 A,2 B,4 | C8 | z8 | D8 | C8 | D4 D4- | D4 ^C4 | D4 (3:2:1A,6- | (3:2:2A,2 B,4 C4- | C4 D4 | %90
 E4 F4- | F4 E4 | D8 | C8 | z4 F4- | F8 | F4 G4- | G4 F4 | E4 F4- | F4 D4- | D4 ^C4 | D8 | z8 | %103
 D8 | F8- | F4 F4 | F8 | G8 | G8 | F8 | G4 A4- | A4 G4 | A8 | A8 | G8 | F8 | E8 | C8 | D8 | E8 | %120
 F4 E4- | E2 D2 D4- | D4 C4 | D8 |] %124
V:2
 c8 | A8 | B4 d4- | d2 c2 A4 | G4 c4- | c8 | d4 B4 | A8 | G4 B4- | B4 c4 | d8 | B8 | (3:2:2c8 B4 | %13
 A8 | F4 G4 | E8 | D8 | z8 | F8 | G8 | A8 | G4 c4- | c4 B4 | c4 A4 | G4 z4 | C8- | C4 D4- | D4 E4 | %28
 F4 z4 | E4 F4 | G8 | D4 d4 | c4 A4- | A4 F4 | G4 E4 | D8 | C4 F4- | F2 E2 F2 G2 | A4 D4- | D4 A4 | %40
 G4 c4- | c4 B4 | c4 (3:2:1A6- | (3:2:2A2 E4 A4- | A4 F4 | E8 | D8 || D8 | G8 | G8 | C8 | c8 | %52
 d4 B4 | c4 A4 | G4 B4- | B4 c4 | d4 A4- | A4 B4 | c8 | d8 | G8 | F4 G4 | D6 E2 | F4 G4 | E8 | D8 | %66
 z8 | G6 A2 | B4 A4 | B4 c4 | d8 | B4 G4- | G4 A4- | A4 G4 | E8 | F4 G4- | G4 D4 | F6 E2 | %78
 D2 C2 D2 E2 | F2 G2 E4 | D8 | C8- | C8 | F4 G4 | A8 | F4 D4 | E8 | D8 | A8- | A4 B4 | c4 d4- | %91
 d4 c4- | c4 B4 | c8 | A8 | D8 | A4 B4 | c4 A4 | G4 A4 | D8 | E8 | D8- | D8 | d8 | A8 | D8 | %106
 z4 d4 | e4 B4- | B4 c4 | d8 | c4 A4 | B8 | A4 F4- | F4 D4 | E8 | D8 | C8 | z4 E4 | F4 G4- | %119
 G4 A4 | D4 C4 | D4 F4 | E8 | D8 |] %124
V:3
 C,8 | F,4 A,4 | G,8 | D,8 | E,4 C,4- | C,4 F,4- | F,4 G,4 | D,8 | z4 G,4- | G,2 F,2 E,4 | D,8 | %11
 E,8 | C,8 | z4 D,4- | D,4 G,,4 | A,,8 | A,4 F,4- | F,4 G,4 | A,8 | G,4 E,4 | D,8 | E,4 F,4- | %22
 F,4 G,4 | C,4 D,4 | E,4 C,4 | G,4 E,4- | E,4 F,4- | F,2 E,F, G,4 | A,8 | G,4 A,4 | B,4 G,4 | %31
 A,4 D,4 | A,,8 | D,8 | B,,4 C,4 | G,,8 | G,4 A,4- | A,2 G,2 A,4 | D,4 A,4- | A,4 D,4 | E,4 C,4 | %41
 G,8 | C,4 z4 | D,8 | C,4 D,4 | A,,8 | A,8 || A,8 | B,4 G,4- | G,2 A,2 B,4 | C8 | C,4 F,4 | %52
 D,4 E,4 | C,4 D,4 | E,6 F,2 | G,4 E,4 | D,8 | z8 | A,8 | D,4 G,4- | G,2 A,2 B,4 | %61
 A,4 (3:2:2B,4 C2 | D6 B,2 | A,4 B,4 | G,8 | A,8 | B,8- | B,4 G,4- | G,4 D,4 | G,4 E,4 | D,8 | %71
 G,8 | E,4 D,4- | D,4 E,4 | C,4 G,4 | A,4 (3:2:1B,6- | (3:2:2B,2 C4 D4- | D4 A,4- | A,4 A,4- | %79
 A,2 B,2 G,4- | G,4 F,4 | G,8 | z8 | D,4 _B,,4 | A,,8 | _B,,8 | A,,8 | z4 F,4 | F,6 G,2 | A,4 G,4 | %90
 E,4 D,4- | D,4 E,2 F,2 | G,8 | C,8 | D,8 | A,8 | F,4 E,4 | C,4 D,4 | E,4 D,4- | D,4 B,,4 | A,,8 | %101
 A,8- | A,8 | D,8- | D,8 | D,4 A,4- | A,4 F,4 | E,8- | E,8 | D,8 | E,4 F,4 | G,8 | D,8 | z4 D4 | %114
 B,4 C4 | D2 A,2 B,2 A,B, | C6 B,2 | A,4 G,4 | A,4 B,4- | B,2 A,B, C4 | D2 B,2 C4 | B,2 A,2 A,4- | %122
 A,4 G,4 | A,8 |] %124

